!!!!SEGMENT: pl-kk--kk-i-3--052-001_anonim--missa-sanctus.krn
!!!cenid: 15xx:708
!!!COM: Anonim
!!!COM-rismID: pe30004985
!!!CDT:
!!!CNT:
!!!OPR: [Missa]
!!!OTL: Sanctus
!!!OMV: 001
!!!PDT:
!!!AGN:
!!!SMS-siglum: PL-Kk
!!!SMS-shelfmark: Kk.I.3
!!!SMS-shelfwork: 052-001 M
!!!SMS-variant:
!!!SMS-altvar:
!!!NIFC-rismSourceID: 1001145493
!!!NIFC-rismChildID: 1001145550
!!!NIFC-islandoraID: pl-kk:1170
!!!URL-pdf-islandora: https://repozytorium.nifc.pl/islandora/object/pl-kk%3A1170/datastream/PDF/view
!!!URL-scan: https://polish.musicsources.pl/pl/lokalizacje/galeria/rekopisy/5919 @EN{Scan on Polish Music Sources Website} @PL{Skany w portalu Dziedzictwo Muzyki Polskiej w otwartym dostępie}
!!!IIIF:
!!!ONB-nifc: UWAGA: Discantus (s. 140v-142v, skan 0143-0145), Tenor (s. 105v-106r, skan 0278), Bassus (s. 135v-136v, skan 0439-0440). Części: 1. Sanctus, 2. Benedictus, 3. Agnus Dei
!!!AIN: 1 bass 1 soprn 1 tenor
!!!key: d:dor
**kern	**text	**kern	**text	**kern	**text
*part3	*part3	*part2	*part2	*part1	*part1
*staff3	*staff3	*staff2	*staff2	*staff1	*staff1
*I"Bassus	*	*I"Tenor	*	*I"Discantus	*
*I'B	*	*I'T	*	*I'S	*
*ICvox	*	*ICvox	*	*ICvox	*
*Ibass	*	*Itenor	*	*Isoprn	*
*clefF4	*	*clefC4	*	*clefC3	*
*d:dor	*	*d:dor	*	*d:dor	*
*k[]	*	*k[]	*	*k[]	*
*M2/1	*	*yyM2/1	*	*M2/1	*
*met(0|)	*	*yymet(0|)	*	*met(0|)	*
=1	=1	=1	=1	=1	=1
!	!	!LO:TX:t=P:problem= brak oznaczenia metrum	!	!	!
1D	San-	0D	San-	1d	San-
1D	-ct(us)	.	.	2d/	.
.	.	.	.	2A/	.
=2	=2	=2	=2	=2	=2
*	*	*lig	*	*	*
2D/	.	1F	.	2B/	.
2AA/	.	.	.	2c/	.
1BB-X	.	1D	.	1d	.
*	*	*Xlig	*	*	*
=3	=3	=3	=3	=3	=3
1AA	.	0C	.	1.e	.
2.A\	.	.	.	.	.
*	*	*	*	*custos:d	*
.	.	.	.	2c/	-ctus.
4G\	.	.	.	.	.
!	!	!	!	!LO:LB:g=original	!
=4	=4	=4	=4	=4	=4
*	*	*lig	*	*	*
4F/	.	1F	.	2.d/	.
*custos:D	*	*	*	*	*
4E/	.	.	.	.	.
!LO:LB:g=original	!	!	!	!	!
2D/	.	.	.	.	.
.	.	.	.	4c/	.
1E	.	1G	.	1B	.
*	*	*Xlig	*	*	*
=5	=5	=5	=5	=5	=5
2.F\	.	0A	.	4A/	.
.	.	.	.	4B/	.
.	.	.	.	4c/	.
4E\	.	.	.	4d/	.
2C/	.	.	.	2e/	.
2D/	.	.	.	2f\	.
=6	=6	=6	=6	=6	=6
*	*	*lig	*	*	*
2E\	.	1c	.	2g\	.
2F\	.	.	.	1a	.
2D/	.	1B	.	.	.
2E/	.	.	.	2g\	.
*	*	*Xlig	*	*	*
=7	=7	=7	=7	=7	=7
2AA/	.	0A	.	2a\	.
1D	.	.	.	4g\	.
.	.	.	.	4f\	.
.	.	.	.	1e	.
2C/	.	.	.	.	.
=8	=8	=8	=8	=8	=8
*	*	*custos:B	*	*custos:f	*
1D	.	0d	.	2r	.
!	!	!	!	!LO:LB:g=original	!
.	.	.	.	2.f\	.
*custos:GG	*	*	*	*	*
!	!	!LO:LB:g=original	!	!	!
2r	.	.	.	.	.
.	.	.	.	4e\	.
!LO:LB:g=original	!	!	!	!	!
2GG/	.	.	.	2d\	.
=9	=9	=9	=9	=9	=9
*lig	*	*lig	*	*	*
1C	.	1c	.	1e	.
1D	.	1B	.	1f	.
*Xlig	*	*Xlig	*	*	*
=10	=10	=10	=10	=10	=10
1E	.	0G	.	2g\	.
.	.	.	.	2.e\	.
1C	.	.	.	.	.
.	.	.	.	4f\	.
.	.	.	.	2g\	.
=11	=11	=11	=11	=11	=11
*	*	*lig	*	*	*
0D	.	1D	.	2.f\	.
.	.	.	.	4e\	.
.	.	1F	.	2f\	.
.	.	.	.	1d	.
*	*	*Xlig	*	*	*
=12	=12	=12	=12	=12	=12
0AA	.	0E	.	.	.
.	.	.	.	4c/	.
.	.	.	.	4B/	.
.	.	.	.	1c	.
=13	=13	=13	=13	=13	=13
0D;	.	0D;	-ctus.	0d;	.
=14	=14	=14	=14	=14	=14
1D	San-	0d	San-	1f	San-
1G	.	.	.	0g	.
=15	=15	=15	=15	=15	=15
*lig	*	*lig	*	*	*
1C	-ctus	1e	.	.	.
1D	.	1d	.	1f	.
*Xlig	*	*Xlig	*	*	*
=16	=16	=16	=16	=16	=16
*	*	*lig	*	*lig	*
2AA/	.	1c	.	1e	-ctus
*custos:G	*	*	*	*	*
1A	.	.	.	.	.
.	.	1B	.	1d	.
!LO:LB:g=original	!	!	!	!	!
2G\	.	.	.	.	.
*	*	*Xlig	*	*Xlig	*
=17	=17	=17	=17	=17	=17
1A	.	0A	.	2r	.
.	.	.	.	2.a\	.
2r	.	.	.	.	.
.	.	.	.	4g\	.
2.D/	.	.	.	1f	.
=18	=18	=18	=18	=18	=18
*	*	*lig	*	*	*
.	.	1d	.	.	.
4E/	.	.	.	.	.
4F\	.	.	.	4e/	.
4G\	.	.	.	4d/	.
1A	.	1c	.	1e	.
*	*	*Xlig	*	*	*
=19	=19	=19	=19	=19	=19
*	*	*lig	*	*	*
2.D/	.	1d	.	2f\	.
.	.	.	.	2.d/	.
4E/	.	.	.	.	.
*	*	*custos:G	*	*	*
2F/	.	1A	.	.	.
.	.	.	.	4e/	.
2D/	.	.	.	2f\	.
*	*	*	*	*custos:f	*
!	!	!LO:LB:g=original	!	!LO:LB:g=original	!
*	*	*Xlig	*	*	*
=20	=20	=20	=20	=20	=20
2.E/	.	0G	.	2.g\	.
4D/	.	.	.	4f\	.
2C/	.	.	.	2e/	.
*custos:AA	*	*	*	*	*
2BB/	.	.	.	2d/	.
!LO:LB:g=original	!	!	!	!	!
=21	=21	=21	=21	=21	=21
*	*	*lig	*	*	*
1AA	.	1A	.	1c	.
1D	.	1F	.	2d/	.
.	.	.	.	2f\	.
*	*	*Xlig	*	*	*
=22	=22	=22	=22	=22	=22
*	*	*lig	*	*	*
0GG	.	1G	.	1d	.
.	.	1B	.	1g	.
*	*	*Xlig	*	*	*
=23	=23	=23	=23	=23	=23
*	*	*	*	*custos:d	*
0D;	.	0A;	-ctus	0f;	.
!	!	!	!	!LO:LB:g=original	!
=24	=24	=24	=24	=24	=24
*lig	*	*	*	*	*
1D	San-	0D	San-	2.d/	San
.	.	.	.	4c/	.
1GG	.	.	.	4B/	.
.	.	.	.	4A/	.
.	.	.	.	2B-X/	.
*Xlig	*	*	*	*	*
=25	=25	=25	=25	=25	=25
*	*	*lig	*	*	*
1FF	-ct(us)	1F	.	2A/	.
.	.	.	.	2c/	.
1GG	.	1D	.	1B	.
*	*	*Xlig	*	*	*
=26	=26	=26	=26	=26	=26
2.AA/	.	0C	.	2.c/	.
4BB/	.	.	.	4d/	.
2C/	.	.	.	2e/	.
*	*	*	*	*lig	*
1AA	.	.	.	1c	.
=27	=27	=27	=27	=27	=27
*	*	*lig	*	*	*
.	.	1F	.	.	.
1BB	.	.	.	1d	.
.	.	1G	.	.	.
*	*	*Xlig	*	*Xlig	*
*	*	*	*	*lig	*
1C	.	.	.	1e	.
=28	=28	=28	=28	=28	=28
*custos:D	*	*	*	*	*
.	.	0A	.	.	.
1D	.	.	.	1f	.
*	*	*	*	*Xlig	*
!LO:LB:g=original	!	!	!	!	!
1C	.	.	.	1e	.
=29	=29	=29	=29	=29	=29
*	*	*lig	*	*	*
*	*	*	*	*custos:a	*
.	.	1c	.	.	.
2F/	.	.	.	1a	.
*	*	*custos:A	*	*	*
2D/	.	1B	.	.	.
!	!	!LO:LB:g=original	!	!LO:LB:g=original	!
2E/	.	.	.	2g\	.
*	*	*Xlig	*	*	*
=30	=30	=30	=30	=30	=30
2AA/	.	0A	.	2a\	.
1D	.	.	.	4g\	.
.	.	.	.	4f\	.
.	.	.	.	1e	.
2C/	.	.	.	.	.
=31	=31	=31	=31	=31	=31
1D	.	0d	.	2r	.
.	.	.	.	2.f\	.
2r	.	.	.	.	.
.	.	.	.	4e\	.
2GG/	.	.	.	2d/	.
=32	=32	=32	=32	=32	=32
*lig	*	*lig	*	*	*
1C	.	1c	.	1e	.
1D	.	1A	.	1f	.
*Xlig	*	*Xlig	*	*	*
=33	=33	=33	=33	=33	=33
2E/	.	0G	.	2g\	.
2.C/	.	.	.	2.e/	.
*	*	*	*	*custos:g	*
4D/	.	.	.	4f/	.
*custos:D	*	*	*	*	*
!	!	!	!	!LO:LB:g=original	!
2E/	.	.	.	2g\	.
!LO:LB:g=original	!	!	!	!	!
=34	=34	=34	=34	=34	=34
*	*	*lig	*	*	*
2.D/	.	1D	.	2.f\	.
4C/	.	.	.	4e\	.
2BB/	.	1F	.	2d/	.
1AA	.	.	.	1c	.
*	*	*Xlig	*	*	*
=35	=35	=35	=35	=35	=35
.	.	0E	.	.	.
2GG/	.	.	.	1d	.
1AA	.	.	.	.	.
.	.	.	.	2c/	.
=36	=36	=36	=36	=36	=36
2BB/	.	0D	-ctus	2d/	.
2GG/	.	.	.	4c/	.
.	.	.	.	4B/	.
1D	.	.	.	1A	.
=37	=37	=37	=37	=37	=37
1GG	.	1d	Do-	2r	.
.	.	.	.	2.d/	Do-
2r	.	1d	-mi-	.	.
.	.	.	.	4e\	-mi-
1D	Do-	.	.	2f\	-nus
=38	=38	=38	=38	=38	=38
*	*	*lig	*	*	*
*	*	*	*	*custos:f	*
.	.	1e	-nus	1g	.
2C/	-mi-	.	.	.	.
!	!	!	!	!LO:LB:g=original	!
1D	-nus	1d	.	1f	De-
*	*	*Xlig	*	*	*
=39	=39	=39	=39	=39	=39
*lig	*	*lig	*	*	*
1AA	De-	1c	De-	2e\	-us
.	.	.	.	1A	Sa-
*custos:AA	*	*	*	*	*
1E	.	1B	.	.	.
.	.	.	.	2G/	-ba-
!LO:LB:g=original	!	!	!	!	!
*Xlig	*	*Xlig	*	*	*
=40	=40	=40	=40	=40	=40
*	*	*custos:d	*	*	*
1AA	-us	0A	-us	1A	-oth
2r	.	.	.	2r	.
*	*	*	*	*	*ij
2A\	.	.	.	2c/	Do-
!	!	!LO:LB:g=original	!	!	!
=41	=41	=41	=41	=41	=41
*	*	*lig	*	*	*
2G\	.	1d	Sa-	1d	-mi-
2F\	.	.	.	.	.
1E	.	1c	.	1e	-nus
*	*	*Xlig	*	*	*
=42	=42	=42	=42	=42	=42
2.D/	.	0d	.	2f\	De-
.	.	.	.	2.d/	.
4E/	.	.	.	.	.
2F\	.	.	.	.	.
.	.	.	.	4e\	.
2D/	Sab-	.	.	2f\	.
=43	=43	=43	=43	=43	=43
!	!	!LO:TX:t=P:problem=takt niewidoczny	!	!	!
2.E/	-ba-	0ryy	.	2.g\	.
*	*	*	*	*custos:e	*
4D/	.	.	.	4f\	.
!	!	!	!	!LO:LB:g=original	!
2C/	-oth	.	.	2.e\	.
2BB/	.	.	.	.	.
.	.	.	.	4d/	.
=44	=44	=44	=44	=44	=44
*lig	*	*lig	*	*	*
1AA	.	1A	.	2.c/	-us
.	.	.	.	4B/	.
1D	.	1F	.	1A	Sa-
*	*	*Xlig	*	*	*
=45	=45	=45	=45	=45	=45
*	*	*lig	*	*	*
0GG	.	1G	-ba-	0d	-ba-
.	.	1B	.	.	.
*Xlig	*	*Xlig	*	*	*
=46	=46	=46	=46	=46	=46
0D;	.	0A;	-oth.	0d;	-oth
*	*	*	*	*	*Xij
=47	=47	=47	=47	=47	=47
*M3/1	*	*yyM3/1	*	*M3/1	*
*met(c)	*	*yymet(c)	*	*met(c)	*
!	!	!LO:N:vis=1	!	!	!
!LO:TX:t=P:problem= metrum zapisane jako c z kropką	!	!	!	!	!
!	!	!	!	!LO:TX:t=P:problem= metrum zapisane jako c z kropką	!
2.D/	Ple-	1.d	Ple-	2.d/	Ple-
4C/	.	.	.	4e/	.
4BB/	.	.	.	2f\	-ni
4AA/	.	.	.	.	.
*	*	*	*	*custos:e	*
!	!	!LO:N:vis=1	!	!LO:N:vis=1	!
1GG	.	1.d	-ni	1.g	ſunt
2GG/	-ni	.	.	.	.
!	!	!	!	!LO:LB:g=original	!
=48	=48	=48	=48	=48	=48
!	!	!LO:N:vis=1	!	!	!
*	*	*lig	*	*	*
2.AA/	ſunt	1.c	ſunt	1e	cae-
4BB/	.	.	.	.	.
2C/	.	.	.	2e\	-li
*	*	*custos:G	*	*	*
*custos:GG	*	*	*	*	*
!	!	!LO:N:vis=1	!	!	!
1.D	cae-	1.A	.	2.d\	et
.	.	.	.	4e\	.
.	.	.	.	2f\	ter-
*	*	*Xlig	*	*	*
!LO:LB:g=original	!	!LO:LB:g=original	!	!	!
=49	=49	=49	=49	=49	=49
!	!	!LO:N:vis=1	!	!	!
1GG	-li	1.G	cae-	1d	-rae
2G\	et	.	.	2r	.
!	!	!LO:N:vis=1	!	!	!
*	*	*	*	*	*ij
2.E/	ter-	1.G	-li	2.G/	Ple-
4D/	.	.	.	4A/	.
2C/	-ra	.	.	4B/	.
.	.	.	.	4c\	.
=50	=50	=50	=50	=50	=50
!	!	!LO:N:vis=1	!	!	!
2.F\	.	1.D	et	1d	-ni
4E\	.	.	.	.	.
2D/	.	.	.	2d\	ſunt
!	!	!LO:N:vis=0	!	!	!
2.A\	.	0.F	.	2.c\	cae-
4G\	.	.	.	4B/	.
4F\	.	.	.	4A/	.
4E\	.	.	.	4G/	.
=51	=51	=51	=51	=51	=51
2.D/	.	.	.	1.A	-li
4E/	.	.	.	.	.
*custos:C	*	*	*	*	*
2F/	.	.	.	.	.
!LO:LB:g=original	!	!LO:N:vis=1	!	!	!
1C	.	1.E	ter-	1G	et
2r	.	.	.	2g\	ter-
=52	=52	=52	=52	=52	=52
!	!	!LO:N:vis=0	!	!	!
2.F/	glo-	0.D	-ra	2.d/	-rae
*	*	*	*	*	*Xij
4G\	.	.	.	4e/	glo-
2A\	.	.	.	4f\	-ri-
.	.	.	.	4g\	-a
2.D/	-ri-	.	.	2.f\	.
4E/	.	.	.	4e/	.
2F/	.	.	.	4d/	.
.	.	.	.	4c/	.
=53	=53	=53	=53	=53	=53
!	!	!LO:N:vis=1	!	!	!
2.BB/	-a	1.d	glo-	2.d/	tu-
4C/	.	.	.	4e/	-a
2D/	.	.	.	2f\	.
!	!	!LO:N:vis=1	!	!	!
2.GG/	tu-	1.d	-ri-	1g	.
4AA/	.	.	.	.	.
*custos:AA	*	*	*	*custos:c	*
2BB/	.	.	.	2d/	.
!LO:LB:g=original	!	!	!LO:LB:g=original	!	!
=54	=54	=54	=54	=54	=54
!	!	!LO:N:vis=1	!	!	!
*	*	*lig	*	*	*
2.AA/	.	1.e	-a	2.c/	.
4BB/	.	.	.	4d/	.
2C/	.	.	.	2e\	.
!	!	!LO:N:vis=1	!	!	!
*	*	*	*	*lig	*
1.D	.	1.d	.	1.f	.
*	*	*Xlig	*	*	*
=55	=55	=55	=55	=55	=55
!	!	!LO:N:vis=1	!	!	!
*	*	*lig	*	*	*
1AA	-a	1.c	tu-	1.e	.
2A\	.	.	.	.	.
*	*	*	*	*Xlig	*
!	!	!LO:N:vis=1	!	!	!
2.A\	.	1.B	.	1.d	.
8G\L	.	.	.	.	.
8F\J	.	.	.	.	.
2G\	.	.	.	.	.
*	*	*Xlig	*	*	*
=56	=56	=56	=56	=56	=56
*	*	*custos:d	*	*	*
!	!	!LO:N:vis=0	!	!	!
1.A	.	0.A	.	1.r	.
1.r	.	.	.	2.c/	.
.	.	.	.	4d/	.
.	.	.	.	2e\	.
!	!	!LO:LB:g=original	!	!	!
=57	=57	=57	=57	=57	=57
!	!	!LO:N:vis=1	!	!	!
*	*	*lig	*	*	*
!	!	!	!	!LO:N:vis=1	!
2.D/	.	1.d	.	1.f	.
4E/	.	.	.	.	.
4F\	.	.	.	.	.
*custos:A	*	*	*	*	*
4G\	.	.	.	.	.
!LO:LB:g=original	!	!	!	!	!
!LO:N:vis=1	!	!LO:N:vis=1	!	!LO:N:vis=1	!
1.A	.	1.c	.	1.e	.
*	*	*Xlig	*	*	*
=58	=58	=58	=58	=58	=58
!	!	!LO:N:vis=1	!	!	!
*	*	*lig	*	*	*
1D	.	1.d	.	1f	.
2G\	.	.	.	2g\	.
!	!	!LO:N:vis=1	!	!	!
1F	.	1.A	.	1a	.
2D/	.	.	.	2f\	.
*	*	*	*	*custos:c	*
*	*	*Xlig	*	*	*
!	!	!	!	!LO:LB:g=original	!
=59	=59	=59	=59	=59	=59
!	!	!LO:N:vis=0	!	!	!
1E	.	0.G	.	1g	.
2D/	.	.	.	2f\	.
1C	.	.	.	1e	.
2BB/	.	.	.	2d/	.
=60	=60	=60	=60	=60	=60
*lig	*	*	*	*	*
!	!	!LO:N:vis=1	!	!	!
*	*	*lig	*	*	*
1.AA	.	1.A	.	2.c/	.
.	.	.	.	4d/	.
.	.	.	.	2e\	.
!	!	!LO:N:vis=1	!	!	!
1.D	.	1.F	.	2.d/	.
.	.	.	.	4e\	.
.	.	.	.	2f\	.
*	*	*Xlig	*	*	*
=61	=61	=61	=61	=61	=61
!	!	!LO:N:vis=1	!	!	!
*	*	*	*	*lig	*
0.GG	.	1.G	.	1.d	.
.	.	1.B	.	1.g	.
!	!	!LO:N:vis=1	!	!	!
*Xlig	*	*	*	*	*
=62	=62	=62	=62	=62	=62
*custos:D	*	*	*	*	*
*	*	*	*	*custos:d	*
!	!	!	!	!LO:N:vis=0	!
!LO:N:vis=0	!	!LO:N:vis=0	!	!	!
0.D;	.	0.A	-a	0.f;	.
!LO:LB:g=original	!	!	!	!LO:LB:g=original	!
=63	=63	=63	=63	=63	=63
*M2/1	*	*yyM2/1	*	*M2/1	*
*met(0|)	*	*yymet(0|)	*	*met(0|)	*
1D	O-	0D	O-	1d	O-
1.D	-ſan-	.	.	2d/	-ſan-
.	.	.	.	2.A/	-na
=64	=64	=64	=64	=64	=64
*	*	*lig	*	*	*
.	.	1F	.	.	.
.	.	.	.	4B/	.
2AA/	.	.	.	2c/	.
1BB-X	.	1D	.	1d	.
*	*	*Xlig	*	*	*
=65	=65	=65	=65	=65	=65
*	*	*custos:F	*	*	*
1AA	-na	0C	.	1.e	.
2.A\	in	.	.	.	.
.	.	.	.	2c/	.
4G\	.	.	.	.	.
!	!	!LO:LB:g=original	!	!	!
=66	=66	=66	=66	=66	=66
*	*	*lig	*	*	*
4F\	.	1F	.	2.d/	.
4E\	.	.	.	.	.
2D/	.	.	.	.	.
.	.	.	.	4c/	.
*	*	*	*	*custos:A	*
1E	ex-	1G	.	1B	.
*	*	*Xlig	*	*	*
!	!	!	!	!LO:LB:g=original	!
=67	=67	=67	=67	=67	=67
2.F\	-cel-	0A	.	4A/	.
.	.	.	.	4B/	.
.	.	.	.	4c/	.
4E\	.	.	.	4d/	ni
2C/	.	.	.	2e\	.
*custos:E	*	*	*	*	*
2D/	.	.	.	2f\	.
!LO:LB:g=original	!	!	!	!	!
=68	=68	=68	=68	=68	=68
*	*	*lig	*	*	*
2E\	.	1c	-ſan-	2g\	ex-
2F\	.	.	.	1a	-cel-
2D/	.	1B	.	.	.
2E\	.	.	.	2g\	.
*	*	*Xlig	*	*	*
=69	=69	=69	=69	=69	=69
2AA/	.	0A	-na	2a\	-ſis
1D	.	.	.	4g\	.
.	.	.	.	4f\	.
.	.	.	.	1e	.
2C/	.	.	.	.	.
=70	=70	=70	=70	=70	=70
1D	-ſis	1d	in	2r	.
.	.	.	.	2.f\	.
2r	.	1d	ex-	.	.
*	*	*	*	*custos:d	*
.	.	.	.	4e\	.
!	!	!	!	!LO:LB:g=original	!
2GG/	.	.	.	2d/	.
=71	=71	=71	=71	=71	=71
*	*	*lig	*	*	*
1C	.	1c	-cel-	1e	in
1D	.	1A	.	1f	.
*	*	*Xlig	*	*	*
=72	=72	=72	=72	=72	=72
*lig	*	*	*	*	*
1E	.	0G	.	2g\	ex-
.	.	.	.	2.e/	-cel-
1C	.	.	.	.	.
.	.	.	.	4f\	.
.	.	.	.	2g\	.
=73	=73	=73	=73	=73	=73
*	*	*lig	*	*	*
0D	.	1D	.	2.f\	.
.	.	.	.	4e\	-ſis.
.	.	1F	.	2f\	.
.	.	.	.	1d	.
*Xlig	*	*Xlig	*	*	*
=74	=74	=74	=74	=74	=74
*custos:D	*	*	*	*	*
0AA	.	0E	-ſis	.	.
.	.	.	.	4c/	.
.	.	.	.	4B/	.
.	.	.	.	1c	.
!LO:LB:g=original	!	!	!	!	!
=75	=75	=75	=75	=75	=75
*	*	*custos:d	*	*custos:f	*
0D;	.	0D;	.	0d;	.
!	!	!LO:LB:g=original	!	!LO:LB:g=original	!
=76	=76	=76	=76	=76	=76
2.D/	Be-	1d	Be-	1f	Be-
4E/	.	.	.	.	.
2F\	.	1d	-ne-	2f\	.
2G\	-ne-	.	.	2d/	ne-
=77	=77	=77	=77	=77	=77
2E/	-dic-	1e	.	1g	.
2C/	-t(us)	.	.	.	.
2.D/	qui	0d	.	2.f\	-dic-
4E/	.	.	.	4e/	-tus
=78	=78	=78	=78	=78	=78
2F\	.	.	.	4d/	.
.	.	.	.	4c/	.
2G\	.	.	.	2B/	qui
2A\	.	1A	.	2c/	.
*custos:E	*	*	*	*	*
2F\	.	.	.	2A/	ve-
!LO:LB:g=original	!	!	!	!	!
=79	=79	=79	=79	=79	=79
1E	.	1c	.	2G/	-nit
.	.	.	.	2g\	ni
1D	ve-	1d	.	2f\	no-
.	.	.	.	1d	-mi-
=80	=80	=80	=80	=80	=80
1AA	-nit	1e	-dic-	.	.
*	*	*	*	*custos:d	*
.	.	.	.	2c/	-ne
!	!	!	!	!LO:LB:g=original	!
2r	.	0d	-tus	1d	.
2.D/	.	.	.	.	.
=81	=81	=81	=81	=81	=81
.	.	.	.	2r	.
4C/	.	.	.	.	.
2BB-X/	.	.	.	1f	Do-
2AA/	.	1c	qui	.	.
1A	.	.	.	2e\	-mi-
=82	=82	=82	=82	=82	=82
.	.	1B	ve-	1d	-ni
2G\	.	.	.	.	.
1A	.	0A	-nit	2r	.
.	.	.	.	2.a\	.
=83	=83	=83	=83	=83	=83
*	*	*custos:d	*	*	*
2r	.	.	.	.	.
.	.	.	.	4g\	.
2.D/	in	.	.	1f	.
.	.	1d	in	.	.
4E/	.	.	.	.	.
4F\	.	.	.	4e\	.
4G\	.	.	.	4d/	.
!	!	!LO:LB:g=original	!	!	!
=84	=84	=84	=84	=84	=84
*custos:D	*	*	*	*	*
1A	.	1c	no-	1e	.
!LO:LB:g=original	!	!LO:TX:t=P:problem=dalsza część wydarta i niewidoczna	!	!	!
2.D/	no-	1d	-mi	2f\	.
.	.	.	.	2.d/	.
4E/	.	.	.	.	.
=85	=85	=85	=85	=85	=85
2F\	.	0ryy	.	.	.
.	.	.	.	4e\	.
*	*	*	*	*custos:g	*
2D/	.	.	.	2f\	.
!	!	!	!	!LO:LB:g=original	!
2.E/	.	.	.	2.g\	.
4D/	-mi-	.	.	4f\	.
=86	=86	=86	=86	=86	=86
2C/	.	0ryy	.	2e\	.
2BB/	.	.	.	2d\	.
*lig	*	*	*	*	*
1AA	ne	.	.	2.c/	.
.	.	.	.	4B/	.
=87	=87	=87	=87	=87	=87
1D	.	0ryy	.	1A	.
*Xlig	*	*	*	*	*
1GG	do-	.	.	0d	.
=88	=88	=88	=88	=88	=88
4GG/	-mi-	0ryy	.	.	.
4AA/	.	.	.	.	.
4BB/	.	.	.	.	.
4C/	.	.	.	.	.
*custos:D	*	*	*	*	*
!	!	!	!	!LO:TX:t=P:problem= brevis zamiast longi	!
1D;>l	-ni	.	.	1d;>l	.
!LO:LB:g=original	!	!	!	!	!
==	==	==	==	==	==
*-	*-	*-	*-	*-	*-
!!!system-decoration: [(s1,s2,s3)]
!!!RDF**kern: l = terminal long
!!!RDF**kern: > = below
!!!ENC: Filip Voros
!!!END: 2022-02-01
!!!ENC: Jan Barakat
!!!END: 2022-02-12
!!!YEC: Copyright 2022 Narodowy Instytut Fryderyka Chopina (https://polishscores.org)
!!!YEM: License CC-BY-4.0 (https://creativecommons.org/licenses/by/4.0)
